remix/Device/phone-lock-fill.svg

<svg viewBox="0 0 24 24" fill="currentColor" xmlns="http://www.w3.org/2000/svg"><path d="M18 2C18.5523 2 19 2.44772 19 3L19.0012 10.1003C18.6777 10.0345 18.3429 10 18 10C15.5811 10 13.5634 11.7177 13.1001 13.9998L12 14V22H6C5.44772 22 5 21.5523 5 21V3C5 2.44772 5.44772 2 6 2H18ZM18 12C19.6569 12 21 13.3431 21 15V16H22V21C22 21.5523 21.5523 22 21 22H15C14.4477 22 14 21.5523 14 21V16H15V15C15 13.3431 16.3431 12 18 12ZM18 14C17.4872 14 17 14.45 17 15V16H19V15C19 14.4477 18.5523 14 18 14Z"/></svg>

<svg viewBox="0 0 24 24" xmlns="http://www.w3.org/2000/svg"><path fill="none" d="M0 0h24v24H0Z"/><path d="M18 2v0c.55 0 1 .44 1 1l0 7.1v0c-2.71-.56-5.35 1.19-5.91 3.9h-1.1v8h-6v0c-.56 0-1-.45-1-1V3v0c0-.56.44-1 1-1h12Zm0 10v0c1.65 0 3 1.34 3 3v1h1v5 0c0 .55-.45 1-1 1h-6v0c-.56 0-1-.45-1-1v-5h1v-1 0c0-1.66 1.34-3 3-3Zm0 2c-.52 0-1 .45-1 1v1h2v-1 0c0-.56-.45-1-1-1Z"/></svg>
